public/assets/icons/bookmark.svg

<svg width="24" height="24" viewBox="0 0 24 24" fill="none" xmlns="http://www.w3.org/2000/svg">
<path d="M9 5.25C8.58579 5.25 8.25 5.58579 8.25 6C8.25 6.41421 8.58579 6.75 9 6.75H15C15.4142 6.75 15.75 6.41421 15.75 6C15.75 5.58579 15.4142 5.25 15 5.25H9Z" fill="#877EFF"/>
<path fill-rule="evenodd" clip-rule="evenodd" d="M11.9425 1.25C9.86994 1.24999 8.23715 1.24997 6.96128 1.42337C5.65121 1.60141 4.60609 1.97468 3.78484 2.80484C2.96469 3.63387 2.59692 4.68702 2.4213 6.00741C2.24997 7.29551 2.24999 8.94462 2.25 11.0411V16.139C2.24999 17.6466 2.24998 18.8402 2.34601 19.7388C2.44091 20.6269 2.64447 21.428 3.22584 21.9638C3.69226 22.3937 4.28211 22.6646 4.91165 22.7367C5.69912 22.8268 6.43439 22.4508 7.15868 21.9377C7.89163 21.4185 8.78075 20.6321 9.90254 19.6399L9.93905 19.6076C10.4591 19.1476 10.8112 18.8372 11.105 18.6224C11.3889 18.4148 11.5623 18.3397 11.7084 18.3103C11.9009 18.2715 12.0991 18.2715 12.2916 18.3103C12.4377 18.3397 12.6111 18.4148 12.895 18.6224C13.1888 18.8372 13.5409 19.1476 14.061 19.6076L14.0975 19.64C15.2193 20.6321 16.1084 21.4186 16.8413 21.9377C17.5656 22.4508 18.3009 22.8268 19.0883 22.7367C19.7179 22.6646 20.3077 22.3937 20.7742 21.9638C21.3555 21.428 21.5591 20.6269 21.654 19.7388C21.75 18.8402 21.75 17.6466 21.75 16.139V11.041C21.75 8.94462 21.75 7.2955 21.5787 6.00741C21.4031 4.68702 21.0353 3.63387 20.2152 2.80484C19.3939 1.97468 18.3488 1.60141 17.0387 1.42337C15.7628 1.24997 14.1301 1.24999 12.0575 1.25H11.9425ZM4.8512 3.85977C5.34797 3.35762 6.02251 3.06474 7.16328 2.90971C8.32645 2.75163 9.85725 2.75 12 2.75C14.1427 2.75 15.6735 2.75163 16.8367 2.90971C17.9775 3.06474 18.652 3.35762 19.1488 3.85977C19.6467 4.36303 19.9379 5.04819 20.0918 6.20518C20.2484 7.38292 20.25 8.93223 20.25 11.0975V16.0909C20.25 17.6572 20.249 18.7702 20.1625 19.5794C20.0739 20.4088 19.9104 20.72 19.7576 20.8608C19.5238 21.0763 19.2298 21.2107 18.9178 21.2464C18.7182 21.2692 18.3835 21.192 17.7083 20.7137C17.0497 20.2472 16.2211 19.5157 15.0547 18.484L15.0286 18.4609C14.5413 18.0299 14.1372 17.6725 13.7804 17.4116C13.4074 17.1388 13.0312 16.9292 12.5878 16.8398C12.1998 16.7617 11.8002 16.7617 11.4122 16.8398C10.9688 16.9292 10.5926 17.1388 10.2196 17.4116C9.86283 17.6725 9.45871 18.0299 8.97145 18.4609L8.94527 18.484C7.77887 19.5157 6.95026 20.2472 6.29165 20.7137C5.61645 21.192 5.28182 21.2692 5.08218 21.2464C4.77019 21.2107 4.47617 21.0763 4.24237 20.8608C4.08963 20.72 3.92614 20.4088 3.83752 19.5794C3.75104 18.7702 3.75 17.6572 3.75 16.0909V11.0975C3.75 8.93223 3.75156 7.38292 3.9082 6.20518C4.06209 5.04819 4.35333 4.36303 4.8512 3.85977Z" fill="#877EFF"/>
</svg>

<svg width="24" height="24" viewBox="0 0 24 24" fill="none" xmlns="http://www.w3.org/2000/svg"><path d="M9 5.25a.75.75 0 0 0 0 1.5h6a.75.75 0 0 0 0-1.5z" fill="#877EFF"/><path fill-rule="evenodd" clip-rule="evenodd" d="M11.943 1.25c-2.073 0-3.706 0-4.982.173-1.31.178-2.355.552-3.176 1.382-.82.829-1.188 1.882-1.364 3.202-.171 1.289-.171 2.938-.171 5.034v5.098c0 1.508 0 2.701.096 3.6.095.888.298 1.689.88 2.225.466.43 1.056.7 1.686.773.787.09 1.522-.286 2.247-.8.733-.518 1.622-1.305 2.744-2.297l.036-.032c.52-.46.872-.77 1.166-.986.284-.207.457-.282.603-.312a1.5 1.5 0 0 1 .584 0c.146.03.32.105.603.312.294.215.646.526 1.166.986l.037.032c1.121.992 2.01 1.779 2.743 2.298.725.513 1.46.889 2.247.799a3 3 0 0 0 1.686-.773c.581-.536.785-1.337.88-2.225.096-.899.096-2.092.096-3.6v-5.098c0-2.096 0-3.746-.171-5.034-.176-1.32-.544-2.373-1.364-3.202-.821-.83-1.866-1.204-3.176-1.382-1.276-.173-2.909-.173-4.982-.173zM4.85 3.86c.497-.502 1.172-.795 2.312-.95 1.163-.158 2.694-.16 4.837-.16s3.674.002 4.837.16c1.14.155 1.815.448 2.312.95.498.503.789 1.188.943 2.345.156 1.178.158 2.727.158 4.893v4.993c0 1.566-.001 2.68-.087 3.488-.09.83-.253 1.141-.405 1.282-.234.215-.528.35-.84.385-.2.023-.534-.054-1.21-.532-.658-.467-1.487-1.198-2.653-2.23l-.026-.023c-.488-.431-.892-.788-1.249-1.05-.373-.272-.749-.482-1.192-.571a3 3 0 0 0-1.176 0c-.443.09-.82.299-1.192.572-.357.26-.761.618-1.249 1.049l-.026.023c-1.166 1.032-1.995 1.763-2.653 2.23-.676.478-1.01.555-1.21.532a1.5 1.5 0 0 1-.84-.385c-.152-.141-.316-.452-.404-1.282-.087-.809-.088-1.922-.088-3.488v-4.994c0-2.165.002-3.714.158-4.892.154-1.157.445-1.842.943-2.345" fill="#877EFF"/></svg>
